svg/Group 43.svg

<svg width="359" height="482" viewBox="0 0 359 482" fill="none" xmlns="http://www.w3.org/2000/svg">
<path d="M227.891 74.0173C220.713 91.5124 236.854 106.469 252.335 111.795C264.573 116.005 292.812 116.728 287.891 96.4618C285.956 88.4945 279.049 79.924 274.891 72.7951C274.235 71.6716 283.369 77.2011 285.002 78.0173C292.449 81.7411 300.282 84.1184 308.669 84.0173C318.745 83.8959 336.803 71.9974 332.446 60.0173C327.783 47.1926 306.441 42.4076 294.891 41.2396C293.968 41.1463 281.039 41.194 281.169 41.5173C282.612 45.1262 293.753 35.7103 294.669 34.7951C304.455 25.0088 305.443 8.37587 290.224 3.23957C274.549 -2.05074 248.824 10.2685 246.113 27.3507C245.547 30.9183 246.619 41.7103 245.835 38.184C244.472 32.0475 242.077 27.601 236.669 24.0173C226.985 17.6005 197.372 7.98486 194.113 27.2396C191.854 40.5867 213.142 47.5457 222.891 50.7951C224.157 51.2173 222.788 49.1694 222.669 49.0173C220.946 46.8315 218.217 46.0753 215.613 45.5173C206.858 43.6412 200.151 43.5202 192.891 49.0173C182.976 56.5241 181.306 71.7275 194.113 77.0173C206.672 82.2049 217.884 73.0173 229.891 73.0173" stroke="#4D4D4D" stroke-width="3" stroke-linecap="round"/>
<path d="M265.891 46.0173C257.907 46.1988 250.989 49.2465 246.946 56.5729C241.771 65.9539 248.353 68.4673 256.946 67.9618C268.265 67.296 279.85 49.0173 263.891 49.0173" stroke="#4D4D4D" stroke-width="3" stroke-linecap="round"/>
<path d="M74.8906 66.0173C76.8398 61.1444 81.4658 49.5734 74.335 46.5173C67.0269 43.3853 59.2676 47.0387 56.8906 54.7951C56.0388 57.5748 55.8906 60.3595 55.8906 63.2396C55.8906 64.7719 54.6491 61.0045 53.1684 60.0173C45.2392 54.7312 28.7843 53.4508 22.9462 62.5729C17.8101 70.5979 23.6684 74.2157 30.8906 76.7951C32.6627 77.428 45.5022 77.4081 45.835 78.5729C46.3805 80.4819 42.8714 83.1717 42.0017 84.5729C39.8178 88.0914 38.8906 92.6994 38.8906 96.7951C38.8906 104.243 45.9793 109.212 52.1128 103.351C57.5409 98.1638 56.1812 94.7504 57.9462 88.5729C58.4065 86.9617 60.297 90.7733 60.4462 91.0173C62.5019 94.3813 66.8058 95.7013 70.4462 96.5729C78.6624 98.5402 87.6475 95.5464 92.6684 88.5729C96.9865 82.5755 89.316 78.0173 83.9462 78.0173C80.1323 78.0173 92.3785 78.0794 94.1128 77.7951C99.0391 76.9875 104.136 72.3878 102.779 66.9618C99.7499 54.8434 81.7045 67.0794 75.8906 69.0173" stroke="#4D4D4D" stroke-width="3" stroke-linecap="round"/>
<path d="M58.8905 72.0173C55.3478 81.9368 66.8905 82.8885 66.8905 74.0173C66.8905 66.9013 59.6596 71.4019 60.8905 72.0173" stroke="#4D4D4D" stroke-width="3" stroke-linecap="round"/>
<path d="M225.891 91.0173C222.734 97.3306 218.877 103.524 215.224 109.573C205.304 125.998 197.249 144.804 189.557 162.351C170.904 204.903 161.633 249.51 153.335 294.906C147.423 327.247 146.698 360.989 139.113 393.017C137.945 397.949 136.68 402.847 135.668 407.795C134.919 411.459 135.175 415.21 134.113 418.795C132.228 425.155 133.147 432.163 132.113 439.017C130.96 446.653 131.891 455.063 131.891 462.795C131.891 466.577 131.902 476.071 129.891 467.017" stroke="#4D4D4D" stroke-width="3" stroke-linecap="round"/>
<path d="M60.8906 94.0173C81.6915 130.226 81.3707 175.845 84.8906 216.073C89.81 272.295 91.8906 328.817 91.8906 385.24C91.8906 399.046 92.1459 413.584 90.3351 427.295C89.2713 435.349 89.184 444.127 87.3906 452.017C85.745 459.258 83.8906 481.443 83.8906 474.017" stroke="#4D4D4D" stroke-width="3" stroke-linecap="round"/>
<path d="M146.891 480.017C151.172 435.781 163.004 393.096 178.78 351.684C186.309 331.919 194.769 313.323 206.002 295.351C210.266 288.528 217.916 280.917 219.891 273.017" stroke="#4D4D4D" stroke-width="3" stroke-linecap="round"/>
<path d="M242.891 243.017C232.994 240.818 220.436 236.046 211.446 243.128C207.366 246.344 202.86 251.738 201.335 256.795C198.105 267.506 217.457 267.158 223.891 265.573C225.323 265.22 229.568 263.823 230.224 262.073C230.281 261.922 223.922 267.037 222.891 268.24C217.613 274.397 208.001 292.906 223.947 292.906C234.39 292.906 242.002 280.435 248.391 273.573C250.071 271.768 254.721 268.744 254.891 266.017C255.046 263.533 252.897 270.625 252.446 273.073C251.452 278.473 250.806 299.509 261.946 295.795C271.379 292.651 274.06 276.39 269.891 268.684C268.052 265.284 262.006 260.308 269.113 261.24C279.431 262.593 286.457 256.065 287.669 245.462C289.192 232.13 268.188 238.88 263.113 243.017C261.902 244.005 257.002 247.51 257.002 249.406C257.002 252.951 260.665 243.288 261.891 239.962C264.766 232.159 265.262 218.305 253.391 219.184C249.659 219.46 246.571 224.014 245.335 227.24C244.598 229.165 245.601 235.321 244.835 233.406C243.279 229.516 239.256 233.487 238.946 235.962C238.425 240.131 242.891 241.176 242.891 245.017" stroke="#4D4D4D" stroke-width="3" stroke-linecap="round"/>
<path d="M244.891 255.017C241.3 253.883 239.276 257.027 238.113 260.017C237.366 261.938 245.853 260.524 246.891 259.573C252.491 254.439 246.681 249.436 244.891 253.017" stroke="#4D4D4D" stroke-width="3" stroke-linecap="round"/>
<path d="M316.59 172.115C307.513 169.49 298.191 166.714 290.59 174.115C283.921 180.609 287.104 185.507 295.534 187.504C298.967 188.317 302.534 188.115 306.034 188.115C307.629 188.115 311.171 187.193 308.59 188.559C299.545 193.348 295.168 204.844 297.201 214.559C299.268 224.435 310.047 226.686 317.145 220.448C320.875 217.171 324.257 213.356 326.034 208.671C326.215 208.194 327.942 202.385 328.812 202.559C329.882 202.773 331.702 207.203 332.59 208.115C335.232 210.831 338.407 212.826 342.256 213.059C352.051 213.653 357.908 207.36 356.368 197.559C355.062 189.253 346.892 187.706 340.034 188.893C337.76 189.286 336.377 190.477 339.034 188.671C342.921 186.028 347.285 182.391 349.423 178.115C353.093 170.776 350.757 163.35 343.812 159.337C336.425 155.069 330.999 161.842 328.201 168.059C327.407 169.824 327.398 176.311 326.534 171.559C325.898 168.061 321.014 159.462 316.368 162.559C312.513 165.129 312.898 173.046 313.701 177.059C314.891 183.009 317.59 180.984 317.59 176.115" stroke="#4D4D4D" stroke-width="3" stroke-linecap="round"/>
<path d="M136.743 140.492C135.484 135.848 134.617 126.357 128.783 124.726C123.55 123.263 119.376 128.333 117.865 132.783C115.979 138.343 117.26 141.712 122.213 144.5C125.95 146.605 123.592 144.748 119.559 145.908C108.593 149.063 101.082 168.057 116.722 169.632C122.617 170.226 126.303 168.097 130.297 164.02C131.184 163.114 133.313 158.068 133.733 160.402C134.622 165.346 143.981 170.58 148.906 169.412C153.665 168.283 155.438 164.433 155.884 160.008C156.295 155.925 154.109 153.169 150.766 150.95C145.719 147.6 150.753 148.72 154.473 146.298C161.036 142.026 168.14 127.685 155.25 126.387C150.37 125.895 136.116 140.624 139.528 142.782" stroke="#4D4D4D" stroke-width="3" stroke-linecap="round"/>
<path d="M30.0328 210.908C25.6077 209.019 17.6211 203.818 12.7261 207.386C8.33519 210.587 9.72748 217.005 12.2844 220.948C15.4784 225.874 18.9171 226.956 24.1746 224.797C28.1423 223.167 25.2233 223.868 23.6345 227.752C19.3154 238.313 29.5683 255.979 40.4968 244.68C44.616 240.421 45.2291 236.209 44.5044 230.547C44.3434 229.29 41.7023 224.492 43.7934 225.609C48.2248 227.975 58.1325 223.873 60.268 219.284C62.3311 214.849 60.4082 211.072 57.2114 207.98C54.2612 205.127 50.7432 205.135 46.9303 206.383C41.1733 208.269 45.1715 205.012 45.5765 200.591C46.2907 192.793 39.4375 178.33 30.4307 187.643C27.0209 191.168 29.7474 211.483 33.5561 210.142" stroke="#4D4D4D" stroke-width="3" stroke-linecap="round"/>
<path d="M294.047 300.308C294.648 292.119 298.209 278.122 287.936 273.919C279.633 270.523 274.166 278.239 271.047 284.753C267.466 292.23 269.438 301.793 277.047 306.142C277.325 306.3 283.603 308.078 283.603 307.308C283.603 306.98 278.092 304.506 277.547 304.364C268.931 302.116 262.979 309.882 260.269 317.308C256.208 328.438 262.137 338.197 274.547 338.197C283.341 338.197 290.487 330.584 293.047 322.753C294.867 317.186 292.198 314.269 292.047 321.086C291.869 329.112 297.419 336.713 306.047 337.253C316.92 337.932 322.047 326.99 322.047 317.53C322.047 309.05 316.727 303.308 308.047 303.308C307.808 303.308 303.081 303.127 303.491 304.086C304.15 305.622 312.684 301.337 313.491 300.697C319.036 296.3 326.612 283.887 323.603 276.53C320.414 268.737 309.061 275.678 306.047 279.864C302.263 285.12 300.073 292.527 296.047 297.308C294.44 299.216 294.719 302.801 297.047 299.308" stroke="#4D4D4D" stroke-width="3" stroke-linecap="round"/>
<path d="M237.563 144.17C235.764 150.683 232.113 160.556 241.868 158.792C246.926 157.877 248.368 152.831 247.97 148.325C247.673 144.975 244.411 143.564 241.326 143.837C236.572 144.258 235.519 147.159 235.191 151.407" stroke="#4D4D4D" stroke-width="3" stroke-linecap="round"/>
<path d="M130.272 144.865C127.68 150.503 124.4 156.676 132.457 158.095C138.525 159.164 142.736 155.809 143.785 149.856C144.351 146.639 144.289 142.432 140.701 141.114C138.469 140.294 135.824 139.64 135.548 142.381" stroke="#4D4D4D" stroke-width="3" stroke-linecap="round"/>
<path d="M322.59 180.115C318.978 182.609 312.986 188.505 316.256 193.559C320.259 199.746 329.284 192.753 329.979 187.615C331.19 178.651 319.59 173.53 319.59 184.115" stroke="#4D4D4D" stroke-width="3" stroke-linecap="round"/>
<path d="M289.89 307.017C279.284 320.924 297.779 318.88 297.779 310.517C297.779 305.344 292.537 306.017 288.89 306.017" stroke="#4D4D4D" stroke-width="3" stroke-linecap="round"/>
<path d="M124.154 168.585C112.636 189.299 101.133 209.486 92.8711 231.759C91.2424 236.15 85.225 247.408 87.8933 252.282" stroke="#4D4D4D" stroke-width="3" stroke-linecap="round"/>
<path d="M235.702 158.389C226.443 169.548 218.655 179.861 212.421 192.797C211.492 194.725 209.876 201.075 208.435 201.961" stroke="#4D4D4D" stroke-width="3" stroke-linecap="round"/>
<path d="M44.8906 236.017C52.599 246.883 62.1905 257.7 68.8906 269.24C70.6474 272.265 71.2255 276.797 73.6684 279.24C76.9929 282.564 77.8316 287.418 80.8906 291.017C82.9723 293.466 83.2241 297.996 84.1128 301.017C84.7767 303.274 86.7551 305.714 86.8906 308.017C87.1434 312.315 86.8906 316.713 86.8906 321.017" stroke="#4D4D4D" stroke-width="3" stroke-linecap="round"/>
<path d="M38.9998 211C29.2923 206.432 20.2662 223.1 28.9998 226.778C37.7636 230.468 43.568 211 34.9998 211" stroke="#4D4D4D" stroke-width="3" stroke-linecap="round"/>
</svg>

<svg xmlns="http://www.w3.org/2000/svg" width="359" height="482" fill="none"><path stroke="#4D4D4D" stroke-linecap="round" stroke-width="3" d="M227.891 74.017c-7.178 17.495 8.963 32.452 24.444 37.778 12.238 4.21 40.477 4.933 35.556-15.333-1.935-7.968-8.842-16.538-13-23.667-.656-1.123 8.478 4.406 10.111 5.222 7.447 3.724 15.28 6.101 23.667 6 10.076-.121 28.134-12.02 23.777-24-4.663-12.824-26.005-17.61-37.555-18.777-.923-.094-13.852-.046-13.722.277 1.443 3.61 12.584-5.807 13.5-6.722 9.786-9.786 10.774-26.42-4.445-31.555-15.675-5.29-41.4 7.028-44.111 24.11-.566 3.568.506 14.36-.278 10.834-1.363-6.136-3.758-10.583-9.166-14.167-9.684-6.416-39.297-16.032-42.556 3.223-2.259 13.347 19.029 20.306 28.778 23.555 1.266.422-.103-1.626-.222-1.778-1.723-2.186-4.452-2.942-7.056-3.5-8.755-1.876-15.462-1.997-22.722 3.5-9.915 7.507-11.585 22.71 1.222 28 12.559 5.188 23.771-4 35.778-4"/><path stroke="#4D4D4D" stroke-linecap="round" stroke-width="3" d="M265.891 46.017c-7.984.182-14.902 3.23-18.945 10.556-5.175 9.38 1.407 11.894 10 11.389 11.319-.666 22.904-18.945 6.945-18.945m-189.001 17c1.95-4.873 6.576-16.444-.555-19.5-7.308-3.132-15.067.522-17.444 8.278-.852 2.78-1 5.564-1 8.445 0 1.532-1.242-2.236-2.723-3.223-7.929-5.286-24.384-6.566-30.222 2.556-5.136 8.025.722 11.643 7.945 14.222 1.772.633 14.611.613 14.944 1.778.545 1.909-2.964 4.599-3.833 6-2.184 3.518-3.111 8.126-3.111 12.222 0 7.448 7.088 12.417 13.222 6.556 5.428-5.187 4.068-8.6 5.833-14.778.46-1.611 2.351 2.2 2.5 2.444 2.056 3.364 6.36 4.684 10 5.556 8.216 1.967 17.201-1.027 22.222-8 4.319-5.997-3.352-10.556-8.722-10.556-3.814 0 8.433.062 10.167-.222 4.926-.808 10.023-5.407 8.666-10.833-3.03-12.119-21.075.117-26.888 2.055"/><path stroke="#4D4D4D" stroke-linecap="round" stroke-width="3" d="M58.89 72.017c-3.542 9.92 8 10.871 8 2 0-7.116-7.23-2.615-6-2m165.001 19c-3.157 6.314-7.014 12.507-10.667 18.556-9.92 16.425-17.975 35.231-25.667 52.778-18.653 42.552-27.924 87.159-36.222 132.555-5.912 32.341-6.637 66.083-14.222 98.111-1.168 4.932-2.433 9.83-3.445 14.778-.749 3.664-.493 7.415-1.555 11-1.885 6.36-.966 13.368-2 20.222-1.153 7.636-.222 16.046-.222 23.778 0 3.782.011 13.276-2 4.222m-69.001-373c20.802 36.209 20.48 81.828 24 122.056 4.92 56.222 7 112.744 7 169.167 0 13.806.256 28.344-1.555 42.055-1.064 8.054-1.151 16.832-2.944 24.722-1.646 7.241-3.5 29.426-3.5 22m63 6c4.281-44.236 16.113-86.921 31.889-128.333 7.529-19.765 15.989-38.361 27.222-56.333 4.264-6.823 11.914-14.434 13.889-22.334"/><path stroke="#4D4D4D" stroke-linecap="round" stroke-width="3" d="M242.891 243.017c-9.897-2.199-22.455-6.971-31.445.111-4.08 3.216-8.586 8.61-10.111 13.667-3.23 10.711 16.122 10.363 22.556 8.778 1.432-.353 5.677-1.75 6.333-3.5.057-.151-6.302 4.964-7.333 6.167-5.278 6.157-14.89 24.666 1.056 24.666 10.443 0 18.055-12.471 24.444-19.333 1.68-1.805 6.33-4.829 6.5-7.556.155-2.484-1.994 4.608-2.445 7.056-.994 5.4-1.64 26.436 9.5 22.722 9.433-3.144 12.114-19.405 7.945-27.111-1.839-3.4-7.885-8.376-.778-7.444 10.318 1.353 17.344-5.175 18.556-15.778 1.523-13.332-19.481-6.582-24.556-2.445-1.211.988-6.111 4.493-6.111 6.389 0 3.545 3.663-6.118 4.889-9.444 2.875-7.803 3.371-21.657-8.5-20.778-3.732.276-6.82 4.83-8.056 8.056-.737 1.925.266 8.081-.5 6.166-1.556-3.89-5.579.081-5.889 2.556-.521 4.169 3.945 5.214 3.945 9.055"/><path stroke="#4D4D4D" stroke-linecap="round" stroke-width="3" d="M244.891 255.017c-3.591-1.134-5.615 2.01-6.778 5-.747 1.921 7.74.507 8.778-.444 5.6-5.134-.21-10.137-2-6.556m71.699-80.902c-9.077-2.625-18.399-5.401-26 2-6.669 6.494-3.486 11.392 4.944 13.389 3.433.813 7 .611 10.5.611 1.595 0 5.137-.922 2.556.444-9.045 4.789-13.422 16.285-11.389 26 2.067 9.876 12.846 12.127 19.944 5.889 3.73-3.277 7.112-7.092 8.889-11.777.181-.477 1.908-6.286 2.778-6.112 1.07.214 2.89 4.644 3.778 5.556 2.642 2.716 5.817 4.711 9.666 4.944 9.795.594 15.652-5.699 14.112-15.5-1.306-8.306-9.476-9.853-16.334-8.666-2.274.393-3.657 1.584-1-.222 3.887-2.643 8.251-6.28 10.389-10.556 3.67-7.339 1.334-14.765-5.611-18.778-7.387-4.268-12.813 2.505-15.611 8.722-.794 1.765-.803 8.252-1.667 3.5-.636-3.498-5.52-12.097-10.166-9-3.855 2.57-3.47 10.487-2.667 14.5 1.19 5.95 3.889 3.925 3.889-.944m-180.847-35.623c-1.259-4.644-2.126-14.135-7.96-15.766-5.233-1.463-9.407 3.607-10.918 8.057-1.886 5.56-.605 8.929 4.348 11.717 3.737 2.105 1.379.248-2.654 1.408-10.966 3.155-18.477 22.149-2.837 23.724 5.895.594 9.581-1.535 13.575-5.612.887-.906 3.016-5.952 3.436-3.618.889 4.944 10.248 10.178 15.173 9.01 4.759-1.129 6.532-4.979 6.978-9.404.411-4.083-1.775-6.839-5.118-9.058-5.047-3.35-.013-2.23 3.707-4.652 6.563-4.272 13.667-18.613.777-19.911-4.88-.492-19.134 14.237-15.722 16.395M30.033 210.908c-4.425-1.889-12.412-7.09-17.307-3.522-4.39 3.201-2.999 9.619-.442 13.562 3.194 4.926 6.633 6.008 11.89 3.849 3.968-1.63 1.05-.929-.54 2.955-4.319 10.561 5.934 28.227 16.863 16.928 4.119-4.259 4.732-8.471 4.007-14.133-.16-1.257-2.802-6.055-.71-4.938 4.43 2.366 14.339-1.736 16.474-6.325 2.063-4.435.14-8.212-3.057-11.304-2.95-2.853-6.468-2.845-10.28-1.597-5.758 1.886-1.76-1.371-1.354-5.792.714-7.798-6.14-22.261-15.146-12.948-3.41 3.525-.684 23.84 3.125 22.499m260.491 90.166c.601-8.189 4.162-22.186-6.111-26.389-8.303-3.396-13.77 4.32-16.889 10.834-3.581 7.477-1.609 17.04 6 21.389.278.158 6.556 1.936 6.556 1.166 0-.328-5.511-2.802-6.056-2.944-8.616-2.248-14.568 5.518-17.278 12.944-4.061 11.13 1.868 20.889 14.278 20.889 8.794 0 15.94-7.613 18.5-15.444 1.82-5.567-.849-8.484-1-1.667-.178 8.026 5.372 15.627 14 16.167 10.873.679 16-10.263 16-19.723 0-8.48-5.32-14.222-14-14.222-.239 0-4.966-.181-4.556.778.659 1.536 9.193-2.749 10-3.389 5.545-4.397 13.121-16.81 10.112-24.167-3.189-7.793-14.542-.852-17.556 3.334-3.784 5.256-5.974 12.663-10 17.444-1.607 1.908-1.328 5.493 1 2M237.563 144.17c-1.799 6.513-5.45 16.386 4.305 14.622 5.058-.915 6.5-5.961 6.102-10.467-.297-3.35-3.559-4.761-6.644-4.488-4.754.421-5.807 3.322-6.135 7.57"/><path stroke="#4D4D4D" stroke-linecap="round" stroke-width="3" d="M130.272 144.865c-2.592 5.638-5.872 11.811 2.185 13.23 6.068 1.069 10.279-2.286 11.328-8.239.566-3.217.504-7.424-3.084-8.742-2.232-.82-4.877-1.474-5.153 1.267m187.042 37.734c-3.612 2.494-9.604 8.39-6.334 13.444 4.003 6.187 13.028-.806 13.723-5.944 1.211-8.964-10.389-14.085-10.389-3.5m-29.7 122.902c-10.606 13.907 7.889 11.863 7.889 3.5 0-5.173-5.242-4.5-8.889-4.5M124.154 168.585c-11.518 20.714-23.021 40.901-31.283 63.174-1.629 4.391-7.646 15.649-4.978 20.523m147.809-93.893c-9.259 11.159-17.047 21.472-23.281 34.408-.929 1.928-2.545 8.278-3.986 9.164M44.89 236.017c7.709 10.866 17.3 21.683 24 33.223 1.757 3.025 2.335 7.557 4.778 10 3.325 3.324 4.164 8.178 7.223 11.777 2.081 2.449 2.333 6.979 3.222 10 .664 2.257 2.642 4.697 2.778 7 .252 4.298 0 8.696 0 13M39 211c-9.708-4.568-18.734 12.1-10 15.778C37.764 230.468 43.568 211 35 211"/></svg>
